svg/decimal_decrease.svg

<svg xmlns="http://www.w3.org/2000/svg" viewBox="0 0 24 24"><path d="m12 17 3 3v-2h6v-2h-6v-2zM9 5a3 3 0 0 1 3 3v3a3 3 0 0 1-3 3 3 3 0 0 1-3-3V8a3 3 0 0 1 3-3m0 2a1 1 0 0 0-1 1v3a1 1 0 0 0 1 1 1 1 0 0 0 1-1V8a1 1 0 0 0-1-1m-5 5a1 1 0 0 1 1 1 1 1 0 0 1-1 1 1 1 0 0 1-1-1 1 1 0 0 1 1-1"/></svg>

<?xml version="1.0" encoding="UTF-8"?><!DOCTYPE svg PUBLIC "-//W3C//DTD SVG 1.1//EN" "http://www.w3.org/Graphics/SVG/1.1/DTD/svg11.dtd"><svg xmlns="http://www.w3.org/2000/svg" xmlns:xlink="http://www.w3.org/1999/xlink" version="1.1" id="mdi-decimal-decrease" width="24" height="24" viewBox="0 0 24 24"><path d="M12,17L15,20V18H21V16H15V14L12,17M9,5A3,3 0 0,1 12,8V11A3,3 0 0,1 9,14A3,3 0 0,1 6,11V8A3,3 0 0,1 9,5M9,7A1,1 0 0,0 8,8V11A1,1 0 0,0 9,12A1,1 0 0,0 10,11V8A1,1 0 0,0 9,7M4,12A1,1 0 0,1 5,13A1,1 0 0,1 4,14A1,1 0 0,1 3,13A1,1 0 0,1 4,12Z" /></svg>
